!!!COM: Messiaen, Olivier (Eugène Prosper Charles)
!!!OTL: Turangalîla, Symphony for Solo Piano, Ondes Martenot and Orchestra
!!!OMV: V: Joie du sang des étoiles (Joy of the Blood of the Stars)
!!!example: 766
!!!work: Mes-22
**kern	**kern	**kern	**dynam	**kern	**dynam	**kern	**dynam	**kern	**dynam	**kern	**dynam	**kern	**kern	**kern	**kern	**kern	**kern	**kern	**dynam	**kern	**kern	**dynam	**kern	**dynam	**kern	**dynam	**kern	**dynam	**kern	**kern	**kern	**dynam	**kern	**dynam	**kern	**dynam	**kern	**kern
*part24	*part23	*part22	*part22	*part21	*part21	*part20	*part20	*part19	*part19	*part18	*part18	*part17	*part17	*part16	*part16	*part15	*part14	*part13	*part13	*part12	*part11	*part11	*part10	*part10	*part9	*part9	*part8	*part8	*part7	*part6	*part5	*part5	*part4	*part4	*part3	*part3	*part2	*part1
*staff26	*staff25	*staff24	*	*staff23	*	*staff22	*	*staff21	*	*staff20	*	*staff19	*staff18	*staff17	*staff16	*staff15	*staff14	*staff13	*	*staff12	*staff11	*	*staff10	*	*staff9	*	*staff8	*	*staff7	*staff6	*staff5	*	*staff4	*	*staff3	*	*staff2	*staff1
*I"Contrabass	*I"Violoncello	*I"Viola	*	*I"Violin II	*	*I"Violin II	*	*I"Violin I	*	*I"Theremin	*	*I"Piano	*	*I"Celesta	*	*I"Glockenspiel	*I"Percussion	*I"Trombone	*	*I"Trumpet in Bb	*I"Trumpet in C	*	*I"Trumpet in D	*	*I"Horn in F	*	*I"Horn in F	*	*I"Bassoon	*I"Bassoon	*I"Clarinet in Bb	*	*I"Cor Anglais	*	*I"Oboe	*	*I"Flute	*I"Piccolo
*I'Cb.	*I'Vc.	*I'Vla.	*	*I'Vln. II	*	*I'Vln. II	*	*I'Vln. I	*	*I'Th.	*	*I'Pno.	*	*I'Cel.	*	*I'Glock.	*I'Perc.	*I'Tbn.	*	*I'Tpt.	*I'C Tpt.	*	*I'D Tpt.	*	*I'Hn.	*	*I'Hn.	*	*I'Bsn.	*I'Bsn.	*I'Cl.	*	*I'C. A.	*	*I'Ob.	*	*I'Fl.	*I'Picc.
*clefF4	*clefF4	*clefC3	*	*clefG2	*	*clefG2	*	*clefG2	*	*clefG2	*	*clefF4	*clefG2	*clefF4	*clefG2	*clefG2	*clefpercussion0	*clefF4	*	*clefG2	*clefG2	*	*clefG2	*	*clefG2	*	*clefG2	*	*clefF4	*clefF4	*clefG2	*	*clefG2	*	*clefG2	*	*clefG2	*clefG2
*k[b-]	*k[b-]	*k[b-]	*	*k[b-]	*	*k[b-]	*	*k[b-]	*	*k[b-]	*	*k[b-]	*k[b-]	*k[b-]	*k[b-]	*k[b-]	*	*k[b-]	*	*	*k[b-]	*	*	*	*	*	*	*	*k[b-]	*k[b-]	*k[b-]	*	*k[b-]	*	*k[b-]	*	*k[b-]	*k[b-]
*F:	*F:	*F:	*	*F:	*	*F:	*	*F:	*	*F:	*	*F:	*F:	*F:	*F:	*F:	*	*F:	*	*	*F:	*	*	*	*	*	*	*	*F:	*F:	*F:	*	*F:	*	*F:	*	*F:	*F:
*M3/16	*M3/16	*M3/16	*	*M3/16	*	*M3/16	*	*M3/16	*	*M3/16	*	*M3/16	*M3/16	*M3/16	*M3/16	*M3/16	*M3/16	*M3/16	*	*M3/16	*M3/16	*	*M3/16	*	*M3/16	*	*M3/16	*	*M3/16	*M3/16	*M3/16	*	*M3/16	*	*M3/16	*	*M3/16	*M3/16
*	*	*	*	*	*	*	*	*	*	*	*	*8va	*8ba	*	*	*	*	*	*	*	*	*	*	*	*	*	*	*	*	*	*	*	*	*	*	*	*	*
=355	=	=	=	=	=	=	=	=	=	=	=	=	=	=	=	=	=	=	=	=	=	=	=	=	=	=	=	=	=	=	=	=	=	=	=	=	=	=
16r	16AA-X'LL 16Cn	(16G^KL 16c	.	(16B-X^KL	.	(16en^KL	.	(16g^KL	.	(16g^KL	.	16AAA-X'LL 16CCn	16aaa-X'LL 16ccccn	8.r	16aaa-X'LL 16ccccn	16aaa-X'LL 16ccccn	8xL 8x	8.r	.	8.r	8.r	.	8.r	.	8.r	.	8.r	.	8.r	16D'LL	8.r	.	8.r	.	8.r	.	16aaa-X'LL	16ccccn'LL
16r	16D-X'JJ 16F	[8fJ [8cc	.	[8anJ	.	[8fJ	.	[8ddJ [8ff	.	[8ffJ	.	16DD-X' 16FF	16dddd-X' 16ffff	.	16dddd-X' 16ffff	16dddd-X' 16ffff	.	.	.	.	.	.	.	.	.	.	.	.	.	16G'JJ	.	.	.	.	.	.	16ddd-X'	16ffffn'JJ
!	!	!	!	!	!	!	!	!	!	!	!	!	!	!	!	!	!	!	!	!	!	!	!	!	!	!	!	!	!	!	!	!	!	!	!	!	!	!LO:TX:t=*** this example is very confusing with simultaneous\nkey signatures - please proofread carefully!
16DD' 16FF	16r	.	.	.	.	.	.	.	.	.	.	16DDDn'JJ 16FFF	16dddn'JJ 16fff	.	16dddn'JJ 16fff	16dddn'JJ 16fff	[16xJk [16x	.	.	.	.	.	.	.	.	.	.	.	.	16r	.	.	.	.	.	.	16dddn'JJ 16fffn	16r
=356	=356	=356	=356	=356	=356	=356	=356	=356	=356	=356	=356	=356	=356	=356	=356	=356	=356	=356	=356	=356	=356	=356	=356	=356	=356	=356	=356	=356	=356	=356	=356	=356	=356	=356	=356	=356	=356	=356
16r	16C#X' 16E	8.f]) 8.cc]	.	8.a])	.	8.f])	.	8.dd]) 8.ff]	.	8.ff])	.	16CC#X'LL 16EE	16cccc#X'LL 16eeee	8.r	16cccc#X'LL 16eeee	16cccc#X'LL 16eeee	8.x_ 8.x_	8.r	.	8.r	8.r	.	8.r	.	8.r	.	8.r	.	8.r	16F#X'	8.r	.	8.r	.	8.r	.	16ddd-X'LL	16eeee'
16EE-X' 16GG	16r	.	.	.	.	.	.	.	.	.	.	16EEE-X' 16GGG	16eee-X' 16ggg	.	16eee-X' 16ggg	16eee-X' 16ggg	.	.	.	.	.	.	.	.	.	.	.	.	.	16r	.	.	.	.	.	.	16eee-X' 16ggg	16r
16r	16BB-X' 16Dn	.	.	.	.	.	.	.	.	.	.	16BBB-X'JJ 16DDn	16bbb-X'JJ 16ddddn	.	16bbb-X'JJ 16ddddn	16bbb-X'JJ 16ddddn	.	.	.	.	.	.	.	.	.	.	.	.	.	16E'	.	.	.	.	.	.	16bbb-X'JJ	16dddd'
=357||	=357||	=357||	=357||	=357||	=357||	=357||	=357||	=357||	=357||	=357||	=357||	=357||	=357||	=357||	=357||	=357||	=357||	=357||	=357||	=357||	=357||	=357||	=357||	=357||	=357||	=357||	=357||	=357||	=357||	=357||	=357||	=357||	=357||	=357||	=357||	=357||	=357||	=357||
*k[b-e-a-d-g-]	*k[b-e-a-d-g-]	*k[b-e-a-d-g-]	*	*k[b-e-a-d-g-]	*	*k[b-e-a-d-g-]	*	*k[b-e-a-d-g-]	*	*k[b-e-a-d-g-]	*	*k[b-e-a-d-g-]	*k[b-e-a-d-g-]	*k[b-e-a-d-g-]	*k[b-e-a-d-g-]	*k[b-e-a-d-g-]	*	*k[b-e-a-d-g-]	*	*	*k[b-e-a-d-g-]	*	*	*	*	*	*	*	*k[b-e-a-d-g-]	*k[b-e-a-d-g-]	*k[b-e-a-d-g-]	*	*k[b-e-a-d-g-]	*	*k[b-e-a-d-g-]	*	*k[b-e-a-d-g-]	*k[b-e-a-d-g-]
*D-:	*D-:	*D-:	*	*D-:	*	*D-:	*	*D-:	*	*D-:	*	*D-:	*D-:	*D-:	*D-:	*D-:	*	*D-:	*	*	*D-:	*	*	*	*	*	*	*	*D-:	*D-:	*D-:	*	*D-:	*	*D-:	*	*D-:	*D-:
16EEn' 16GG#X	16r	8.r	.	8.r	.	8.r	.	8.r	.	8.r	.	16EEEn'LL 16GGG#X	16eeen'LL 16ggg#X	8.r	16eeen'LL 16ggg#X	16eeen'LL 16ggg#X	8.x_ 8.x_	16d-~LL	ff	8.r	16dd-X~LL	ff	8.r	.	16d-X~LL 16g-X	ff	16e-X~LL 16b-X	ff	16r	16r	16ee-~LL 16ddd-	ff	16d-~LL	ff	16gg-~LL 16bb-	ff	16eeen'LL	16ggg#X'LL
16r	16GGn'LL 16BBn	.	.	.	.	.	.	.	.	.	.	16GGGn' 16BBBn	16gggn' 16bbbn	.	16gggn' 16bbbn	16gggn' 16bbbn	.	16d-~	.	.	16dd-X~	.	.	.	16d-~ 16g-	.	16e-~ 16b-	.	16GGn'LL	16D-X'LL	16ee-~ 16ddd-	.	16d-~	.	16gg-~ 16bb-	.	16gggn'	16bbbn'
16r	16Cn'JJ 16En	.	.	.	.	.	.	.	.	.	.	16CCn'JJ 16EEn	16ccccn'JJ 16eeeen	.	16ccccn'JJ 16eeeen	16ccccn'JJ 16eeeen	.	16B-~JJ	.	.	16b-X~JJ	.	.	.	16cn~JJ	.	16en~JJ 16a	.	16C'JJ	16G-X'JJ	16cc~JJ 16bb-	.	16cc~JJ	.	16een~JJ 16aan	.	16ccc'JJ	16eeeen'JJ
=358	=358	=358	=358	=358	=358	=358	=358	=358	=358	=358	=358	=358	=358	=358	=358	=358	=358	=358	=358	=358	=358	=358	=358	=358	=358	=358	=358	=358	=358	=358	=358	=358	=358	=358	=358	=358	=358	=358
16DDn' 16FF	16r	8.r	.	8.r	.	8.r	.	8.r	.	8.r	.	16DDDn'LL 16FFF	16dddn'LL 16fff	8.r	16dddn'LL 16fff	16dddn'LL 16fff	16xKL] 16x]	8A-~L	.	8.r	8a-X~L	.	8.r	.	8B-X~L 8d-X	.	8f~L	.	16r	16r	8dd-~L 8aa-	.	8b-~L	.	8dd-~L 8ff	.	16dddn'LL 16fff	16r
16r	16C#X' 16En	.	.	.	.	.	.	.	.	.	.	16CC#X' 16EEn	16cccc#X' 16eeeen	.	16cccc#X' 16eeeen	16cccc#X' 16eeeen	[8xJ [8x	.	.	.	.	.	.	.	.	.	.	.	16C#X'	16G-X'	.	.	.	.	.	.	16ddd-X'	16eeeen'
16EE-X' 16GGn	16r	.	.	.	.	.	.	.	.	.	.	16EEE-X'JJ 16GGGn	16eee-X'JJ 16gggn	.	16eee-X'JJ 16gggn	16eee-X'JJ 16gggn	.	16FJk	.	.	16fnJk	.	.	.	16GnJk 16f-X	.	16c-XJk 16en	.	16r	16r	16gnJk 16ff-X	.	16gnJk	.	16bnJk 16ff	.	16eee-X'JJ 16gggn	16r
=359	=359	=359	=359	=359	=359	=359	=359	=359	=359	=359	=359	=359	=359	=359	=359	=359	=359	=359	=359	=359	=359	=359	=359	=359	=359	=359	=359	=359	=359	=359	=359	=359	=359	=359	=359	=359	=359	=359
16r	16BBn' 16D#X	8.r	.	8.r	.	8.r	.	8.r	.	8.r	.	16BBBn'LL 16DD#X	16bbbn'LL 16dddd#X	8.r	16bbbn'LL 16dddd#X	16bbbn'LL 16dddd#X	8xL] 8x]	(16E-^KL	.	8.r	(16e-X^KL	.	8.r	.	(16G-X^KL 16a-X	.	(16A-X^KL 16cn	.	16BBn'	16F'	(16a-^KL 16ee-	.	(16g-X^KL	.	(16cc^KL 16ee-	.	16bbbn'LL	16dddd#X'LL
16FFn' 16AAn	16r	.	.	.	.	.	.	.	.	.	.	16FFFn' 16AAAn	16fffn' 16aaan	.	16fffn' 16aaan	16fffn' 16aaan	.	[8A-J	.	.	[8a-XJ	.	.	.	[8A-XJ [8d-X	.	[8B-XJ [8f	.	16r	16r	[8b-J [8dd-	.	[8fJ	.	[8ffJ [8aa-	.	16fffn'	16aaan'
16r	16FF#X' 16AA#X	.	.	.	.	.	.	.	.	.	.	16FFF#X'JJ 16AAA#X	16fff#X'JJ 16aaa#X	.	16fff#X'JJ 16aaa#X	16fff#X'JJ 16aaa#X	[16xJk [16x	.	.	.	.	.	.	.	.	.	.	.	16FF#X'	16C'	.	.	.	.	.	.	16fff#X'JJ	16aaa#X'JJ
=360	=360	=360	=360	=360	=360	=360	=360	=360	=360	=360	=360	=360	=360	=360	=360	=360	=360	=360	=360	=360	=360	=360	=360	=360	=360	=360	=360	=360	=360	=360	=360	=360	=360	=360	=360	=360	=360	=360
16r	16BBn' 16D#X	8.r	.	8.r	.	8.r	.	8.r	.	8.r	.	16BBBn'LL 16DD#X	16bbbn'LL 16dddd#X	8.r	16bbbn'LL 16dddd#X	16bbbn'LL 16dddd#X	8.x] 8.x]	8.A-])	.	8.r	8.a-])	.	8.r	.	8.A-]) 8.d-]	.	8.B-]) 8.f]	.	16BBn'	16F'	8.b-]) 8.dd-]	.	8.f])	.	8.ff]) 8.aa-]	.	16bbn'LL	16dddd#X'
16DDn' 16FFn	16r	.	.	.	.	.	.	.	.	.	.	16DDDn' 16FFFn	16dddn' 16fffn	.	16dddn' 16fffn	16dddn' 16fffn	.	.	.	.	.	.	.	.	.	.	.	.	16r	16r	.	.	.	.	.	.	16dddn' 16fffn	16r
16r	16C#X' 16En	.	.	.	.	.	.	.	.	.	.	16CC#X'JJ 16EEn	16cccc#X'JJ 16eeeen	.	16cccc#X'JJ 16eeeen	16cccc#X'JJ 16eeeen	.	.	.	.	.	.	.	.	.	.	.	.	16C#X'	16F#X'	.	.	.	.	.	.	16ddd-X'JJ	16eeeen'
=361	=361	=361	=361	=361	=361	=361	=361	=361	=361	=361	=361	=361	=361	=361	=361	=361	=361	=361	=361	=361	=361	=361	=361	=361	=361	=361	=361	=361	=361	=361	=361	=361	=361	=361	=361	=361	=361	=361
16EE-' 16GGn	16r	16dd-~LL	ff	16ee-~LL 16gg-	ff	16bb-~LL	ff	16ddd-~LL	ff	16ddd-~LL	ff	16EEE-X'LL 16GGGn	16eee-X'LL 16gggn	8.r	16eee-X'LL 16gggn	16eee-X'LL 16gggn	[8.x [8.x	16d-~LL	.	16dd-X~LL	16dd-X~LL	.	16ccc~LL	ff	16d-X~LL 16g-X	.	16e-X~LL 16b-X	.	16r	16r	16ee-~LL 16ddd-	.	16d-~LL	.	16gg-~LL 16bb-	.	16eee-'LL 16gggn	16r
16r	16Cn' 16En	16dd-~	.	16ee-~ 16gg-	.	16bb-~	.	16ddd-~	.	16ddd-~	.	16CCn' 16EEn	16ccccn' 16eeeen	.	16ccccn' 16eeeen	16ccccn' 16eeeen	.	16d-~	.	16dd-X~	16dd-X~	.	16ccc~	.	16d-~ 16g-	.	16e-~ 16b-	.	16Cn'	16F#X'	16ee-~ 16ddd-	.	16d-~	.	16gg-~ 16bb-	.	16cccn'	16eeeen'LL
16GG-X' 16BB-X	16r	16b-~JJ	.	16cc~JJ 16een	.	16aan~JJ	.	16bb-~JJ	.	16bb-~JJ	.	16FFF#X'JJ 16AAA#X	16fff#X'JJ 16aaa#X	.	16fff#X'JJ 16aaa#X	16fff#X'JJ 16aaa#X	.	16B-~JJ	.	16b-X~JJ	16b-X~JJ	.	16aa#X~JJ	.	16cn~JJ	.	16en~JJ 16a	.	16r	16r	16cc~JJ 16bb-	.	16cc~JJ	.	16een~JJ 16aan	.	16ggg'JJ	16bbb-X'JJ
=362	=362	=362	=362	=362	=362	=362	=362	=362	=362	=362	=362	=362	=362	=362	=362	=362	=362	=362	=362	=362	=362	=362	=362	=362	=362	=362	=362	=362	=362	=362	=362	=362	=362	=362	=362	=362	=362	=362
16r	16FF'LL 16AAn	8a-~L	.	8b-~L 8ff	.	8dd-~L	.	8aa-~L	.	8aa-~L	.	16FFFn'LL 16AAAn	16fffn'LL 16aaan	8.r	16fffn'LL 16aaan	16fffn'LL 16aaan	16xKL] 16x]	8A-~L	.	8a-X~L	8a-X~L	.	8gg#X~L	.	8B-X~L 8d-X	.	8f~L	.	16FF'LL	16BBn'LL	8dd-~L 8aa-	.	8b-~L	.	8dd-~L 8ff	.	16fff'LL	16aaan'LL
16r	16BB-X'JJ 16Dn	.	.	.	.	.	.	.	.	.	.	16BBB-X' 16DDn	16bbb-X' 16ddddn	.	16bbb-X' 16ddddn	16bbb-X' 16ddddn	8xJ 8x	.	.	.	.	.	.	.	.	.	.	.	16BB-X'JJ	16En'JJ	.	.	.	.	.	.	16bb-X'	16ddddn'JJ
16DDn' 16FFn	16r	16fJk	.	16gnJk 16een	.	16cc-XJk	.	16ffJk	.	16ffJk	.	16DDDn'JJ 16FFFn	16dddn'JJ 16fffn	.	16dddn'JJ 16fffn	16dddn'JJ 16fffn	.	16FJk	.	16fnJk	16fnJk	.	16ee#XJk	.	16GnJk 16f-X	.	16c-XJk 16en	.	16r	16r	16gnJk 16ff-X	.	16gnJk	.	16bnJk 16ff	.	16dddn'JJ 16fff	16r
=363	=363	=363	=363	=363	=363	=363	=363	=363	=363	=363	=363	=363	=363	=363	=363	=363	=363	=363	=363	=363	=363	=363	=363	=363	=363	=363	=363	=363	=363	=363	=363	=363	=363	=363	=363	=363	=363	=363
*	*	*	*	*	*	*	*	*	*	*	*	*X8va	*X8ba	*	*	*	*	*	*	*	*	*	*	*	*	*	*	*	*	*	*	*	*	*	*	*	*	*
16r	16C#X' 16En	(16e-^KL)	.	(16g-X^KL) 16cc	.	(16a-^KL)	.	(16ee-^KL)	.	(16ee-^KL)	.	16C#X'LL 16En	16ccc#X'LL 16eeen	8.r	16cccc#X'LL 16eeeen	16cccc#X'LL 16eeeen	8.x 8.x	(16E-^KL)	.	(16e-X^KL)	(16e-X^KL)	.	(16dd#X^KL)	.	(16G-X^KL) 16a-X	.	(16A-X^KL) 16cn	.	16D-X'	16F#X'	(16a-^KL) 16ee-	.	(16g-X^KL)	.	(16cc^KL) 16ee-	.	16ddd-X'LL	16eeeen'
16EE-' 16GGn	16r	[8a-J	.	[8dd-J [8ff	.	[8b-J	.	[8aa-J	.	[8aa-J	.	16EE-X' 16GGn	16ee-X' 16ggn	.	16eee-X' 16gggn	16eee-X' 16gggn	.	[8A-J	.	[8a-XJ	[8a-XJ	.	[8gg#XJ	.	[8A-XJ [8d-X	.	[8B-XJ [8f	.	16r	16r	[8b-J [8dd-	.	[8fJ	.	[8ffJ [8aa-	.	16eee-' 16gggn	16r
16r	16D-X' 16Fn	.	.	.	.	.	.	.	.	.	.	16D-X'JJ 16Fn	16ddd-X'JJ 16fffn	.	16dddd-X'JJ 16ffffn	16dddd-X'JJ 16ffffn	.	.	.	.	.	.	.	.	.	.	.	.	16D-'	16Gn'	.	.	.	.	.	.	16ddd-X'JJ	16ffff'
==	==	==	==	==	==	==	==	==	==	==	==	==	==	==	==	==	==	==	==	==	==	==	==	==	==	==	==	==	==	==	==	==	==	==	==	==	==	==
*-	*-	*-	*-	*-	*-	*-	*-	*-	*-	*-	*-	*-	*-	*-	*-	*-	*-	*-	*-	*-	*-	*-	*-	*-	*-	*-	*-	*-	*-	*-	*-	*-	*-	*-	*-	*-	*-	*-
!!!CDT: 1908/12/10-1992/04/27
!!!CBL: Avignon, France
!!!CDL: Paris, France
!!!CNT: French
!!!AGN: Orchestral; Concerto
!!!MCN: Bernstein, Leonard
!!!MDT: 1949/12/02
!!!MGN: Boston Symphony Orchestra
!!!MLC: Boston, Massachusetts, United States of America
!!!MPD: 1949
!!!MPN: Loriod, Yvonne; Martenot, Ginette
!!!ODT: 1948 (rev. 1990)
!!!PDT: 1953
!!!excerpt-start-measure: 355
!!!excerpt-end-measure: 363
!!!excerpt-start-time: 3:46
!!!excerpt-end-time: 3:51
!!!EEV: 2020/01/17
!!!system-decoration: [(s1,s2,s3,s4,s5,s6,s7)][(s8,s9,s10,s11,s12,s13)]s14[(s15)]{(s16,s17)}{(s18,s19)}s20[(s21,s22,s23,s24,s25,s26)]
!!!ONB: Converted from MusicXML on 2020/01/17
